Numix/22/actions/view-calendar-month.svg

<?xml version="1.0" encoding="UTF-8" standalone="no"?>
<!-- Created with Inkscape (http://www.inkscape.org/) -->

<svg
   xmlns:dc="http://purl.org/dc/elements/1.1/"
   xmlns:cc="http://creativecommons.org/ns#"
   xmlns:rdf="http://www.w3.org/1999/02/22-rdf-syntax-ns#"
   xmlns:svg="http://www.w3.org/2000/svg"
   xmlns="http://www.w3.org/2000/svg"
   xmlns:sodipodi="http://sodipodi.sourceforge.net/DTD/sodipodi-0.dtd"
   xmlns:inkscape="http://www.inkscape.org/namespaces/inkscape"
   width="22"
   height="22"
   id="svg13094"
   version="1.1"
   inkscape:version="0.91 r"
   sodipodi:docname="view-calendar-month.svg">
  <sodipodi:namedview
     id="base"
     pagecolor="#ffffff"
     bordercolor="#666666"
     borderopacity="1.0"
     inkscape:pageopacity="1"
     inkscape:pageshadow="2"
     inkscape:zoom="11.313708"
     inkscape:cx="44.34238"
     inkscape:cy="-11.70722"
     inkscape:document-units="px"
     inkscape:current-layer="svg13094"
     showgrid="true"
     inkscape:snap-bbox="true"
     inkscape:bbox-paths="true"
     inkscape:bbox-nodes="true"
     inkscape:snap-bbox-edge-midpoints="true"
     inkscape:snap-bbox-midpoints="true"
     inkscape:object-paths="true"
     inkscape:snap-intersection-paths="true"
     inkscape:object-nodes="true"
     inkscape:snap-smooth-nodes="true"
     inkscape:snap-midpoints="true"
     inkscape:snap-object-midpoints="true"
     inkscape:snap-center="true"
     showguides="false"
     inkscape:guide-bbox="true"
     inkscape:window-width="1920"
     inkscape:window-height="1056"
     inkscape:window-x="0"
     inkscape:window-y="24"
     inkscape:window-maximized="1"
     inkscape:snap-global="true"
     fit-margin-top="0"
     fit-margin-left="0"
     fit-margin-right="0"
     fit-margin-bottom="0"
     showborder="true"
     inkscape:showpageshadow="false"
     inkscape:snap-page="false">
    <inkscape:grid
       type="xygrid"
       id="grid3075"
       empspacing="5"
       visible="true"
       enabled="true"
       snapvisiblegridlinesonly="true"
       originx="1.6362304e-08px"
       originy="18px" />
    <sodipodi:guide
       orientation="0,1"
       position="-11,30"
       id="guide9148" />
    <sodipodi:guide
       orientation="1,0"
       position="32,70"
       id="guide9150" />
  </sodipodi:namedview>
  <defs
     id="defs13096" />
  <metadata
     id="metadata13099">
    <rdf:RDF>
      <cc:Work
         rdf:about="">
        <dc:format>image/svg+xml</dc:format>
        <dc:type
           rdf:resource="http://purl.org/dc/dcmitype/StillImage" />
        <dc:title></dc:title>
      </cc:Work>
    </rdf:RDF>
  </metadata>
  <path
     style="color:#000000;display:inline;overflow:visible;visibility:visible;fill:#dc322f;fill-opacity:1;fill-rule:nonzero;stroke:none;stroke-width:2.28571415;marker:none;enable-background:accumulate"
     d="M 1,2 1,5.6118599 1,20.014938 2.004527,21 19.995474,21 21,20.014938 21,5.6118599 21,2 10.999999,2 Z"
     id="rect4519"
     inkscape:connector-curvature="0"
     sodipodi:nodetypes="cccccccccc" />
  <path
     inkscape:connector-curvature="0"
     style="color:#000000;display:inline;overflow:visible;visibility:visible;fill:#f4f4f4;fill-opacity:1;fill-rule:nonzero;stroke:none;stroke-width:1;marker:none;enable-background:accumulate"
     d="M 2,5.5 2,19 20,19 20,5.5 Z"
     id="path4577"
     sodipodi:nodetypes="ccccc" />
  <path
     style="color:#000000;display:inline;overflow:visible;visibility:visible;fill:#dc7876;fill-opacity:1;fill-rule:nonzero;stroke:none;marker:none;enable-background:accumulate"
     d="m 1.6696072,1 -0.6696071,0.35157 0,1.14843 5.8358818,0 6.5495931,0 7.614525,0 0,-1.148429 -0.669607,-0.35157 -6.944918,0 -6.5495931,0 z"
     id="path6688"
     inkscape:connector-curvature="0"
     sodipodi:nodetypes="ccccccccccc" />
  <rect
     style="color:#000000;display:inline;overflow:visible;visibility:visible;fill:#e4e4e4;fill-opacity:1;fill-rule:nonzero;stroke:none;stroke-width:2.28571415;marker:none;enable-background:accumulate"
     id="rect3872"
     width="1.5"
     height="4"
     x="4"
     y="0" />
  <path
     style="color:#000000;font-style:normal;font-variant:normal;font-weight:normal;font-stretch:normal;font-size:medium;line-height:normal;font-family:sans-serif;text-indent:0;text-align:start;text-decoration:none;text-decoration-line:none;text-decoration-style:solid;text-decoration-color:#000000;letter-spacing:normal;word-spacing:normal;text-transform:none;direction:ltr;block-progression:tb;writing-mode:lr-tb;baseline-shift:baseline;text-anchor:start;white-space:normal;clip-rule:nonzero;display:inline;overflow:visible;visibility:visible;opacity:1;isolation:auto;mix-blend-mode:normal;color-interpolation:sRGB;color-interpolation-filters:linearRGB;solid-color:#000000;solid-opacity:1;fill:#78cf72;fill-opacity:1;fill-rule:nonzero;stroke:none;stroke-width:2;stroke-linecap:butt;stroke-linejoin:round;stroke-miterlimit:4;stroke-dasharray:none;stroke-dashoffset:0;stroke-opacity:1;color-rendering:auto;image-rendering:auto;shape-rendering:auto;text-rendering:auto;enable-background:accumulate"
     d="m 12.12429,6.2551178 c -0.5242,0.06034 -0.34185,0.661001 -0.374765,1.02438 l 0,1.9730292 -8.61958,0 C 2.605746,9.312867 2.788096,9.913526 2.755181,10.276906 l 0,7.593176 c 0.06036,0.524076 0.661156,0.341769 1.024621,0.374676 l 6.095902,0 c 0.524198,-0.06034 0.341849,-0.661 0.374764,-1.02438 l 0,-1.97302 8.619587,0 c 0.524199,-0.06034 0.341849,-0.661 0.374764,-1.024381 l 0,-7.5931832 c -0.06036,-0.524075 -0.661156,-0.341769 -1.024621,-0.374676 z"
     id="rect4175"
     inkscape:connector-curvature="0"
     sodipodi:nodetypes="ccccccccccccccc" />
  <g
     id="g4251"
     transform="translate(-1,-1)">
    <rect
       ry="0.37503096"
       rx="0.375"
       y="16.999876"
       x="18"
       height="1.5001239"
       width="1.5"
       id="rect4425-0"
       style="opacity:1;fill:#777f8a;fill-opacity:1;fill-rule:nonzero;stroke:none;stroke-width:2;stroke-linecap:butt;stroke-linejoin:round;stroke-miterlimit:4;stroke-dasharray:none;stroke-dashoffset:0;stroke-opacity:1" />
    <rect
       ry="0.37503096"
       rx="0.375"
       y="16.999876"
       x="13.5"
       height="1.5001239"
       width="1.5"
       id="rect4425-70"
       style="opacity:1;fill:#777f8a;fill-opacity:1;fill-rule:nonzero;stroke:none;stroke-width:2;stroke-linecap:butt;stroke-linejoin:round;stroke-miterlimit:4;stroke-dasharray:none;stroke-dashoffset:0;stroke-opacity:1" />
    <rect
       ry="0.37503096"
       rx="0.375"
       y="16.999876"
       x="9"
       height="1.5001239"
       width="1.5"
       id="rect4425-41"
       style="opacity:1;fill:#777f8a;fill-opacity:1;fill-rule:nonzero;stroke:none;stroke-width:2;stroke-linecap:butt;stroke-linejoin:round;stroke-miterlimit:4;stroke-dasharray:none;stroke-dashoffset:0;stroke-opacity:1" />
    <rect
       ry="0.37503096"
       rx="0.375"
       y="7.999876"
       x="18"
       height="1.5001239"
       width="1.5"
       id="rect4425-0-7"
       style="opacity:1;fill:#777f8a;fill-opacity:1;fill-rule:nonzero;stroke:none;stroke-width:2;stroke-linecap:butt;stroke-linejoin:round;stroke-miterlimit:4;stroke-dasharray:none;stroke-dashoffset:0;stroke-opacity:1" />
    <rect
       ry="0.37503096"
       rx="0.375"
       y="7.999876"
       x="13.5"
       height="1.5001239"
       width="1.5"
       id="rect4425-70-9"
       style="opacity:1;fill:#777f8a;fill-opacity:1;fill-rule:nonzero;stroke:none;stroke-width:2;stroke-linecap:butt;stroke-linejoin:round;stroke-miterlimit:4;stroke-dasharray:none;stroke-dashoffset:0;stroke-opacity:1" />
    <rect
       ry="0.37503096"
       rx="0.375"
       y="7.999876"
       x="9"
       height="1.5001239"
       width="1.5"
       id="rect4425-41-8"
       style="opacity:1;fill:#777f8a;fill-opacity:1;fill-rule:nonzero;stroke:none;stroke-width:2;stroke-linecap:butt;stroke-linejoin:round;stroke-miterlimit:4;stroke-dasharray:none;stroke-dashoffset:0;stroke-opacity:1" />
    <rect
       ry="0.37503096"
       rx="0.375"
       y="10.999876"
       x="18"
       height="1.5001239"
       width="1.5"
       id="rect4425-0-7-9"
       style="opacity:1;fill:#777f8a;fill-opacity:1;fill-rule:nonzero;stroke:none;stroke-width:2;stroke-linecap:butt;stroke-linejoin:round;stroke-miterlimit:4;stroke-dasharray:none;stroke-dashoffset:0;stroke-opacity:1" />
    <rect
       ry="0.37503096"
       rx="0.375"
       y="10.999876"
       x="13.5"
       height="1.5001239"
       width="1.5"
       id="rect4425-70-9-7"
       style="opacity:1;fill:#777f8a;fill-opacity:1;fill-rule:nonzero;stroke:none;stroke-width:2;stroke-linecap:butt;stroke-linejoin:round;stroke-miterlimit:4;stroke-dasharray:none;stroke-dashoffset:0;stroke-opacity:1" />
    <rect
       ry="0.37503096"
       rx="0.375"
       y="10.999876"
       x="9"
       height="1.5001239"
       width="1.5"
       id="rect4425-41-8-0"
       style="opacity:1;fill:#777f8a;fill-opacity:1;fill-rule:nonzero;stroke:none;stroke-width:2;stroke-linecap:butt;stroke-linejoin:round;stroke-miterlimit:4;stroke-dasharray:none;stroke-dashoffset:0;stroke-opacity:1" />
    <rect
       ry="0.37503096"
       rx="0.375"
       y="13.999876"
       x="18"
       height="1.5001239"
       width="1.5"
       id="rect4425-0-1"
       style="opacity:1;fill:#777f8a;fill-opacity:1;fill-rule:nonzero;stroke:none;stroke-width:2;stroke-linecap:butt;stroke-linejoin:round;stroke-miterlimit:4;stroke-dasharray:none;stroke-dashoffset:0;stroke-opacity:1" />
    <rect
       ry="0.37503096"
       rx="0.375"
       y="13.999876"
       x="13.5"
       height="1.5001239"
       width="1.5"
       id="rect4425-70-4"
       style="opacity:1;fill:#777f8a;fill-opacity:1;fill-rule:nonzero;stroke:none;stroke-width:2;stroke-linecap:butt;stroke-linejoin:round;stroke-miterlimit:4;stroke-dasharray:none;stroke-dashoffset:0;stroke-opacity:1" />
    <rect
       ry="0.37503096"
       rx="0.375"
       y="13.999876"
       x="9"
       height="1.5001239"
       width="1.5"
       id="rect4425-41-7"
       style="opacity:1;fill:#777f8a;fill-opacity:1;fill-rule:nonzero;stroke:none;stroke-width:2;stroke-linecap:butt;stroke-linejoin:round;stroke-miterlimit:4;stroke-dasharray:none;stroke-dashoffset:0;stroke-opacity:1" />
    <rect
       ry="0.37503096"
       rx="0.375"
       y="16.999876"
       x="4.5"
       height="1.5001239"
       width="1.5"
       id="rect4425-46"
       style="opacity:1;fill:#777f8a;fill-opacity:1;fill-rule:nonzero;stroke:none;stroke-width:2;stroke-linecap:butt;stroke-linejoin:round;stroke-miterlimit:4;stroke-dasharray:none;stroke-dashoffset:0;stroke-opacity:1" />
    <rect
       ry="0.37503096"
       rx="0.375"
       y="7.999876"
       x="4.5"
       height="1.5001239"
       width="1.5"
       id="rect4425-46-6"
       style="opacity:1;fill:#777f8a;fill-opacity:1;fill-rule:nonzero;stroke:none;stroke-width:2;stroke-linecap:butt;stroke-linejoin:round;stroke-miterlimit:4;stroke-dasharray:none;stroke-dashoffset:0;stroke-opacity:1" />
    <rect
       ry="0.37503096"
       rx="0.375"
       y="10.999876"
       x="4.5"
       height="1.5001239"
       width="1.5"
       id="rect4425-46-6-0"
       style="opacity:1;fill:#777f8a;fill-opacity:1;fill-rule:nonzero;stroke:none;stroke-width:2;stroke-linecap:butt;stroke-linejoin:round;stroke-miterlimit:4;stroke-dasharray:none;stroke-dashoffset:0;stroke-opacity:1" />
    <rect
       ry="0.37503096"
       rx="0.375"
       y="13.999876"
       x="4.5"
       height="1.5001239"
       width="1.5"
       id="rect4425-46-4"
       style="opacity:1;fill:#777f8a;fill-opacity:1;fill-rule:nonzero;stroke:none;stroke-width:2;stroke-linecap:butt;stroke-linejoin:round;stroke-miterlimit:4;stroke-dasharray:none;stroke-dashoffset:0;stroke-opacity:1" />
  </g>
  <rect
     style="color:#000000;display:inline;overflow:visible;visibility:visible;fill:#e4e4e4;fill-opacity:1;fill-rule:nonzero;stroke:none;stroke-width:2.28571415;marker:none;enable-background:accumulate"
     id="rect3872-7"
     width="1.5"
     height="4"
     x="16.5"
     y="0" />
</svg>

<!-- Created with Inkscape (http://www.inkscape.org/) -->
<svg xmlns="http://www.w3.org/2000/svg" viewBox="0 0 22 22">
 <path d="m 1 2 0 3.612 0 14.403 1 0.985 17.991 0 1 -0.985 0 -14.403 0 -3.612 -10 0" style="visibility:visible;fill:#dc322f;fill-opacity:1;stroke:none;display:inline;color:#000;fill-rule:nonzero"/>
 <path d="m 2 5.5 0 13.5 18 0 0 -13.5" style="visibility:visible;fill:#f4f4f4;fill-opacity:1;stroke:none;display:inline;color:#000;fill-rule:nonzero"/>
 <path d="m 1.67 1 -0.67 0.352 0 1.148 5.836 0 6.55 0 7.615 0 0 -1.148 -0.67 -0.352 -6.945 0 -6.55 0 z" style="visibility:visible;fill:#dc7876;fill-opacity:1;stroke:none;display:inline;color:#000;fill-rule:nonzero"/>
 <rect width="1.5" height="4" x="4" style="visibility:visible;fill:#e4e4e4;fill-opacity:1;stroke:none;display:inline;color:#000;fill-rule:nonzero"/>
 <path d="m 12.12 6.255 c -0.524 0.06 -0.342 0.661 -0.375 1.024 l 0 1.973 -8.62 0 c -0.524 0.06 -0.342 0.661 -0.375 1.024 l 0 7.593 c 0.06 0.524 0.661 0.342 1.025 0.375 l 6.096 0 c 0.524 -0.06 0.342 -0.661 0.375 -1.024 l 0 -1.973 8.62 0 c 0.524 -0.06 0.342 -0.661 0.375 -1.024 l 0 -7.593 c -0.06 -0.524 -0.661 -0.342 -1.025 -0.375 z" mix-blend-mode="normal" isolation="auto" white-space="normal" solid-opacity="1" solid-color="#000000" style="visibility:visible;shape-rendering:auto;color-interpolation-filters:linearRGB;fill:#78cf72;opacity:1;image-rendering:auto;fill-opacity:1;stroke:none;display:inline;color:#000;fill-rule:nonzero;color-rendering:auto;color-interpolation:sRGB"/>
 <g transform="translate(-1,-1)">
  <rect rx="0.375" y="17" x="18" height="1.5" width="1.5" style="fill:#777f8a;opacity:1;fill-opacity:1;stroke:none;fill-rule:nonzero"/>
  <rect rx="0.375" y="17" x="13.5" height="1.5" width="1.5" style="fill:#777f8a;opacity:1;fill-opacity:1;stroke:none;fill-rule:nonzero"/>
  <rect rx="0.375" y="17" x="9" height="1.5" width="1.5" style="fill:#777f8a;opacity:1;fill-opacity:1;stroke:none;fill-rule:nonzero"/>
  <rect rx="0.375" y="8" x="18" height="1.5" width="1.5" style="fill:#777f8a;opacity:1;fill-opacity:1;stroke:none;fill-rule:nonzero"/>
  <rect rx="0.375" y="8" x="13.5" height="1.5" width="1.5" style="fill:#777f8a;opacity:1;fill-opacity:1;stroke:none;fill-rule:nonzero"/>
  <rect rx="0.375" y="8" x="9" height="1.5" width="1.5" style="fill:#777f8a;opacity:1;fill-opacity:1;stroke:none;fill-rule:nonzero"/>
  <rect rx="0.375" y="11" x="18" height="1.5" width="1.5" style="fill:#777f8a;opacity:1;fill-opacity:1;stroke:none;fill-rule:nonzero"/>
  <rect rx="0.375" y="11" x="13.5" height="1.5" width="1.5" style="fill:#777f8a;opacity:1;fill-opacity:1;stroke:none;fill-rule:nonzero"/>
  <rect rx="0.375" y="11" x="9" height="1.5" width="1.5" style="fill:#777f8a;opacity:1;fill-opacity:1;stroke:none;fill-rule:nonzero"/>
  <rect rx="0.375" y="14" x="18" height="1.5" width="1.5" style="fill:#777f8a;opacity:1;fill-opacity:1;stroke:none;fill-rule:nonzero"/>
  <rect rx="0.375" y="14" x="13.5" height="1.5" width="1.5" style="fill:#777f8a;opacity:1;fill-opacity:1;stroke:none;fill-rule:nonzero"/>
  <rect rx="0.375" y="14" x="9" height="1.5" width="1.5" style="fill:#777f8a;opacity:1;fill-opacity:1;stroke:none;fill-rule:nonzero"/>
  <rect rx="0.375" y="17" x="4.5" height="1.5" width="1.5" style="fill:#777f8a;opacity:1;fill-opacity:1;stroke:none;fill-rule:nonzero"/>
  <rect rx="0.375" y="8" x="4.5" height="1.5" width="1.5" style="fill:#777f8a;opacity:1;fill-opacity:1;stroke:none;fill-rule:nonzero"/>
  <rect rx="0.375" y="11" x="4.5" height="1.5" width="1.5" style="fill:#777f8a;opacity:1;fill-opacity:1;stroke:none;fill-rule:nonzero"/>
  <rect rx="0.375" y="14" x="4.5" height="1.5" width="1.5" style="fill:#777f8a;opacity:1;fill-opacity:1;stroke:none;fill-rule:nonzero"/>
 </g>
 <rect width="1.5" height="4" x="16.5" style="visibility:visible;fill:#e4e4e4;fill-opacity:1;stroke:none;display:inline;color:#000;fill-rule:nonzero"/>
</svg>
